X: 29614
T: North Highland Dance
R: reel
M: 4/4
K: Amixolydian
e2Ad cABG|e2Ad cAcA|e2Ad cABG|cAaf e2 d2|
e2Ad cABG|e2Ac a2Ac|e2Ad cABG|cAaf e2 d2|
cAAd BGGB|cAAd cAae|cAAd BGdB|cAaf e2 de|
cAAd BGGB|cAAd cAae|cAAd BGdB|cAaf e2 d2|

